packages/kaspersky-hexa-ui-icons/src/iconsSVGs/16/Android2.svg

<svg width="16" height="16" viewBox="0 0 16 16" fill="none" xmlns="http://www.w3.org/2000/svg">
<path fill-rule="evenodd" clip-rule="evenodd" d="M8.00011 0.949951C7.08688 0.949951 6.23964 1.23246 5.541 1.71484L4.9665 1.14034C4.71266 0.886495 4.3011 0.886494 4.04726 1.14033C3.79342 1.39417 3.79342 1.80573 4.04726 2.05957L4.59309 2.60541C4.01299 3.34247 3.66693 4.27239 3.66693 5.28313V11.5523C3.66693 12.6453 4.44902 13.5557 5.48413 13.7544V14.4C5.48413 14.7589 5.77515 15.05 6.13413 15.05C6.49312 15.05 6.78413 14.7589 6.78413 14.4V13.7946H9.18945V14.4C9.18945 14.7589 9.48047 15.05 9.83945 15.05C10.1984 15.05 10.4895 14.7589 10.4895 14.4V13.7593C11.5378 13.5713 12.3333 12.6547 12.3333 11.5523V5.28313C12.3333 4.27237 11.9872 3.34243 11.4071 2.60536L11.9529 2.05957C12.2067 1.80573 12.2067 1.39417 11.9529 1.14033C11.699 0.886495 11.2875 0.886496 11.0336 1.14034L10.4592 1.71481C9.76054 1.23244 8.91331 0.949951 8.00011 0.949951ZM4.96693 5.28313C4.96693 3.60795 6.32493 2.24995 8.00011 2.24995C9.67528 2.24995 11.0333 3.60795 11.0333 5.28313V6.0943H4.96693V5.28313ZM4.96693 7.3943V11.5523C4.96693 12.0727 5.38884 12.4946 5.9093 12.4946H10.0909C10.6114 12.4946 11.0333 12.0727 11.0333 11.5523V7.3943H4.96693Z" fill="black"/>
<path d="M2.37266 5.4905C2.73164 5.4905 3.02266 5.78152 3.02266 6.1405V9.30444C3.02266 9.66342 2.73164 9.95444 2.37266 9.95444C2.01367 9.95444 1.72266 9.66342 1.72266 9.30444V6.1405C1.72266 5.78152 2.01367 5.4905 2.37266 5.4905Z" fill="black"/>
<path d="M14.2775 6.1405C14.2775 5.78152 13.9865 5.4905 13.6275 5.4905C13.2685 5.4905 12.9775 5.78152 12.9775 6.1405V9.30444C12.9775 9.66342 13.2685 9.95444 13.6275 9.95444C13.9865 9.95444 14.2775 9.66342 14.2775 9.30444V6.1405Z" fill="black"/>
</svg>

<svg xmlns="http://www.w3.org/2000/svg" width="16" height="16" fill="none" viewBox="0 0 16 16"><path fill="#000" fill-rule="evenodd" d="M8.0001.95a4.313 4.313 0 0 0-2.4591.7648l-.5745-.5745a.65.65 0 1 0-.9192.9193l.5458.5458a4.315 4.315 0 0 0-.9262 2.6777v6.2692c0 1.093.7821 2.0034 1.8172 2.2021V14.4a.65.65 0 0 0 1.3 0v-.6054h2.4054V14.4a.65.65 0 0 0 1.3 0v-.6407c1.0483-.188 1.8438-1.1046 1.8438-2.207V5.2831a4.315 4.315 0 0 0-.9262-2.6777l.5458-.5458a.65.65 0 0 0-.9193-.9193l-.5744.5745A4.313 4.313 0 0 0 8.0002.95M4.967 5.283c0-1.675 1.358-3.033 3.0331-3.033s3.0332 1.358 3.0332 3.0331v.8112H4.9669zm0 2.1112v4.158c0 .5204.422.9423.9424.9423h4.1816c.5205 0 .9424-.4219.9424-.9423v-4.158z" clip-rule="evenodd"/><path fill="#000" d="M2.373 5.491a.65.65 0 0 1 .65.65v3.164a.65.65 0 0 1-1.3 0V6.141a.65.65 0 0 1 .65-.65m11.905.65a.65.65 0 1 0-1.3 0v3.164a.65.65 0 1 0 1.3 0z"/></svg>
